Suru++-Ubuntu/apps/scalable/aegisub.svg

<svg width="256" height="256" version="1.1" viewBox="0 0 67.73 67.73" xmlns="http://www.w3.org/2000/svg" xmlns:xlink="http://www.w3.org/1999/xlink">
 <defs>
  <linearGradient id="linearGradient1108" x1="296" x2="296" y1="-212" y2="236" gradientUnits="userSpaceOnUse">
   <stop style="stop-color:#ffffff" offset="0"/>
   <stop style="stop-color:#ffffff;stop-opacity:.09803922" offset=".125"/>
   <stop style="stop-color:#000000;stop-opacity:.09803922" offset=".925"/>
   <stop style="stop-color:#000000;stop-opacity:.49803922" offset="1"/>
  </linearGradient>
  <clipPath id="clipPath1082-3-361">
   <path d="M 361.9375,-212 C 507.2348,-212 528,-191.28677 528,-46.125 V 70.125 C 528,215.28618 507.2348,236 361.9375,236 H 214.0625 C 68.7652,236 48,215.28618 48,70.125 V -46.125 C 48,-191.28677 68.7652,-212 214.0625,-212 Z" style="fill:#8c59d9"/>
  </clipPath>
  <filter id="filter4569" x="-.01" y="-.01" width="1.023" height="1.025" style="color-interpolation-filters:sRGB">
   <feGaussianBlur stdDeviation="1.16"/>
  </filter>
  <filter id="filter939" x="-.02" y="-.03" width="1.046" height="1.05" style="color-interpolation-filters:sRGB">
   <feGaussianBlur stdDeviation="2.32"/>
  </filter>
  <filter id="filter1002" x="-.04" y="-.06" width="1.08" height="1.12" style="color-interpolation-filters:sRGB">
   <feGaussianBlur stdDeviation=".831"/>
  </filter>
 </defs>
 <g transform="translate(0,-229.26666)">
  <path transform="matrix(.26970779 0 0 .26970779 -1.9098094e-8 231.46531)" d="m162.53675 5.5680001c72.64865 0 83.03125 10.356615 83.03125 82.937505v58.125005c0 72.58059-10.3826 82.9375-83.03125 82.9375h-73.937496c-72.648654 0-83.031254-10.35691-83.031254-82.9375v-58.125005c0-72.58089 10.3826-82.937505 83.031254-82.937505z" style="filter:url(#filter939);opacity:.2"/>
  <path d="m43.837429 232.42763c19.593907 0 22.394176 2.79326 22.394176 22.36889v15.67677c0 19.57555-2.800269 22.36889-22.394176 22.36889h-19.941519c-19.593909 0-22.394177-2.79334-22.394177-22.36889v-15.67677c0-19.57563 2.8002682-22.36889 22.394177-22.36889z" style="fill:none;opacity:.1;stroke-linecap:round;stroke-linejoin:round;stroke-width:1.0788311;stroke:#000000"/>
  <path transform="matrix(.26970779 0 0 .26970779 -1.9098094e-8 231.46531)" d="m162.53675 3.5680001c72.64865 0 83.03125 10.356615 83.03125 82.937505v58.125005c0 72.58059-10.3826 82.9375-83.03125 82.9375h-73.937496c-72.648654 0-83.031254-10.35691-83.031254-82.9375v-58.125005c0-72.58089 10.3826-82.937505 83.031254-82.937505z" style="filter:url(#filter4569);opacity:.1"/>
  <path d="m43.837426 232.42763c19.593907 0 22.394175 2.79326 22.394175 22.36889v15.67677c0 19.57555-2.800268 22.36889-22.394175 22.36889h-19.94152c-19.593907 0-22.394175-2.79334-22.394175-22.36889v-15.67677c0-19.57563 2.8002682-22.36889 22.394175-22.36889z" style="fill:#e1e3cc"/>
  <path transform="matrix(.26458333 0 0 .26458333 0 229.26666)" d="m250.32422 115.76758v-19.277346c0-9.248329-0.16557-17.505574-0.59961-24.875-0.21702-3.684712-0.50097-7.146679-0.86523-10.40039-0.36427-3.253712-0.80837-6.297958-1.34571-9.146485-0.53733-2.848527-1.16806-5.501544-1.90429-7.970703-0.73624-2.469159-1.57812-4.755486-2.53907-6.871094-0.96095-2.115607-2.04046-4.059783-3.25195-5.847656-1.21149-1.787872-2.55511-3.418343-4.04297-4.904297-1.48786-1.485953-3.1201-2.827257-4.91016-4.037109-1.79005-1.209852-3.73739-2.288481-5.85546-3.248047s-4.407-1.800059-6.87891-2.535156-5.12694-1.365899-7.97852-1.902344c-1.51217-0.284474-3.23096-0.478725-4.85546-0.712891l-55.56446 101.39063 100.5918 0.33789z" style="fill-rule:evenodd;fill:#d52f41"/>
  <path transform="matrix(.26458333 0 0 .26458333 0 229.26666)" d="m204.51562 238.30859c1.90732-0.26287 3.88121-0.49787 5.63672-0.82812 2.85158-0.53645 5.50661-1.16724 7.97852-1.90235 2.47191-0.7351 4.76084-1.57558 6.87891-2.53515s4.06541-2.03819 5.85546-3.24805c1.79006-1.20986 3.4223-2.55115 4.91016-4.03711s2.83148-3.11642 4.04297-4.90429c1.21149-1.78788 2.291-3.73205 3.25195-5.84766s1.80283-4.40194 2.53907-6.87109c0.73623-2.46916 1.36696-5.12218 1.90429-7.97071 0.53734-2.84852 0.98144-5.89278 1.34571-9.14648 0.36426-3.25371 0.64821-6.71569 0.86523-10.40039 0.43404-7.36941 0.59961-15.62671 0.59961-24.875v-17.51172l-100.45899 0.33789 54.65039 99.74023z" style="fill-rule:evenodd;fill:#d52f41"/>
  <path transform="matrix(.26458333 0 0 .26458333 0 229.26666)" d="m73.751953 239.88672c5.310478 0.17638 10.404738 0.39844 16.5625 0.39844h75.371097c6.71326 0 12.34716-0.22069 18.05664-0.4336l-54.08594-105.22265-55.904297 105.25781z" style="fill-rule:evenodd;fill:#d52f41"/>
  <path transform="matrix(.26458333 0 0 .26458333 0 229.26666)" d="m5.6757812 138.47852v17.26367c0 9.24829 0.1655716 17.50559 0.5996094 24.875 0.217019 3.6847 0.5009694 7.14668 0.8652344 10.40039 0.364265 3.2537 0.8083678 6.29796 1.3457031 9.14648 0.5373354 2.84853 1.1680667 5.50155 1.9042969 7.97071 0.73623 2.46915 1.578113 4.75548 2.539063 6.87109 0.960949 2.11561 2.04046 4.05978 3.251953 5.84766 1.211493 1.78787 2.555108 3.41833 4.042968 4.90429 1.487861 1.48596 3.120103 2.82725 4.910157 4.03711 1.790053 1.20986 3.737399 2.28848 5.855468 3.24805 2.11807 0.95957 4.406996 1.80005 6.878907 2.53515 2.471911 0.73511 5.126939 1.3659 7.978515 1.90235 1.773724 0.33368 3.766592 0.57101 5.695313 0.83594l53.726561-99.49805-99.593749-0.33984z" style="fill-rule:evenodd;fill:#d52f41"/>
  <path transform="matrix(.26458333 0 0 .26458333 0 229.26666)" d="m50.539062 14.0625c-1.565915 0.227838-3.230295 0.414586-4.691406 0.689453-2.851576 0.536445-5.506604 1.167247-7.978515 1.902344s-4.760837 1.57559-6.878907 2.535156c-2.118069 0.959566-4.065415 2.038195-5.855468 3.248047-1.790054 1.209852-3.422296 2.551156-4.910157 4.037109-1.48786 1.485954-2.831475 3.116425-4.042968 4.904297-1.211493 1.787873-2.291004 3.732049-3.251953 5.847656-0.96095 2.115608-1.802833 4.401935-2.539063 6.871094-0.7362302 2.469159-1.3669615 5.122176-1.9042969 7.970703-0.5373353 2.848527-0.9814381 5.892773-1.3457031 9.146485-0.364265 3.253711-0.6482154 6.715678-0.8652344 10.40039-0.4340378 7.369426-0.5996094 15.626671-0.5996094 24.875v19.025386l99.484379-0.33398-54.621098-101.11914z" style="fill-rule:evenodd;fill:#d52f41"/>
  <path transform="matrix(.26458333 0 0 .26458333 0 229.26666)" d="m184.51172 12.398438c-5.91002-0.233256-11.82682-0.451172-18.82617-0.451172h-75.371097c-6.549884 0-12.023742 0.222078-17.617187 0.423828l56.841794 106.99805 54.97266-106.9707z" style="fill-rule:evenodd;fill:#d52f41"/>
  <path transform="matrix(.26458333 0 0 .26458333 0 229.26666)" d="m5.6757812 118.16797 99.498049-0.33789 4.41797-0.01563-2.10157-3.88867-54.158199-100.27148c-1.916213 0.23688-3.746698 0.509151-5.515625 0.808594l3.896485 7.216797h-0.066407l49.091796 90.871092-95.062499 0.31445v5.30274z" style="fill-rule:evenodd;fill:#4d4d4d"/>
  <path transform="matrix(.26458333 0 0 .26458333 0 229.26666)" d="m54.34375 238.72656 53.26172-98.65039 2.10351-3.89062-4.41992-0.01367-99.613279-0.33204v5.29493l95.179689 0.31445-50.451173 93.41992h0.015625l-1.638672 3.04102c1.809574 0.29055 3.60209 0.58846 5.5625 0.8164z" style="fill-rule:evenodd;fill:#4d4d4d"/>
  <path transform="matrix(.26458333 0 0 .26458333 0 229.26666)" d="m186.69336 239.78125-54.67188-106.35937-2.3164-4.50196-2.38281 4.46875-56.525395 106.42774c1.850026 0.07673 3.976835 0.09236 5.931641 0.14257l52.894534-99.60156 51.17968 99.56446c1.91416-0.0564 4.07911-0.05738 5.89063-0.14063z" style="fill-rule:evenodd;fill:#4d4d4d"/>
  <path transform="matrix(.26458333 0 0 .26458333 0 229.26666)" d="m250.32422 135.58398-100.45899 0.3379-4.45312 0.01562 2.13672 3.90625 54.18164 98.87305c1.96664-0.22971 3.77132-0.52738 5.58594-0.82032l-52.98243-96.69531 95.99024-0.31445v-5.30274z" style="fill-rule:evenodd;fill:#4d4d4d"/>
  <path transform="matrix(.26458333 0 0 .26458333 0 229.26666)" d="m202.50781 13.630859-55.09179 100.52539-2.13477 3.90625 4.45117 0.01367 100.5918 0.33985v-5.30469l-96.12305-0.31445 49.82227-90.919927v-0.099609l4.02148-7.333985c-1.7795-0.298967-3.60901-0.576431-5.53711-0.8125z" style="fill-rule:evenodd;fill:#4d4d4d"/>
  <path transform="matrix(.26458333 0 0 .26458333 0 229.26666)" d="m75.541016 12.302734c-1.890305 0.054058-4.008158 0.058768-5.798828 0.138672l57.462892 108.16992 2.38476 4.46875 2.31641-4.50196 55.55469-108.10742c-1.80015-0.087036-3.99385-0.082804-5.89649-0.142578l-52.05859 101.31446-53.677735-101.04883h-0.132813l-0.154296-0.291016z" style="fill-rule:evenodd;fill:#4d4d4d"/>
  <g transform="translate(-3.5606777e-5 -.22707869)">
   <path d="m33.866692 246.22065c-4.594799-0.0636-9.11423 1.7911-12.525912 4.77176-4.367992 3.48004-8.546114 7.20914-12.383875 11.2698 4.359429 5.14569 9.134459 9.98707 14.500057 14.08403 6.765961 4.71733 16.698982 4.10462 22.75516-1.52842 4.57935-3.77045 8.743618-8.02313 12.564375-12.55561-4.573674-4.77902-9.550529-9.25532-14.876677-13.12494-2.970116-1.91745-6.50094-2.92295-10.033128-2.91662z" style="filter:url(#filter1002);opacity:.3"/>
   <path d="m33.866692 246.22065c-4.594799-0.0636-9.11423 1.7911-12.525912 4.77176-4.367992 3.48004-8.546114 7.20914-12.383875 11.2698 4.359429 5.14569 9.134459 9.98707 14.500057 14.08403 6.765961 4.71733 16.698982 4.10462 22.75516-1.52842 4.57935-3.77045 8.743618-8.02313 12.564375-12.55561-4.573674-4.77902-9.550529-9.25532-14.876677-13.12494-2.970116-1.91745-6.50094-2.92295-10.033128-2.91662z" style="fill:#f0f3f4"/>
   <g transform="translate(-.5926147)">
    <circle cx="34.459" cy="262.472" r="10.504" style="fill:#3ca6e0"/>
    <circle cx="34.459" cy="262.472" r="4.41" style="fill:#34495e"/>
   </g>
   <ellipse transform="matrix(.74917335 .66237398 -.96580229 .25927964 0 0)" cx="309.045" cy="199.044" rx="2.164" ry=".852" style="fill:#f8f7f7"/>
  </g>
  <path transform="matrix(.1348539 0 0 .1348539 -4.9712559 261.01666)" d="M 361.9375,-212 C 507.2348,-212 528,-191.28677 528,-46.125 V 70.125 C 528,215.28618 507.2348,236 361.9375,236 H 214.0625 C 68.7652,236 48,215.28618 48,70.125 V -46.125 C 48,-191.28677 68.7652,-212 214.0625,-212 Z" clip-path="url(#clipPath1082-3-361)" style="fill:none;opacity:.4;stroke-linecap:round;stroke-linejoin:round;stroke-width:8;stroke:url(#linearGradient1108)"/>
  <path d="m33.866666 232.42763v60.41455h9.970761c19.593907 0 22.394175-2.79334 22.394175-22.36889v-15.67677c0-19.57563-2.800268-22.36889-22.394175-22.36889z" style="fill:#ffffff;opacity:.1"/>
  <path d="m23.895907 292.84218c-19.593907 0-22.394176-2.79835-22.394176-22.4096v-7.85265h64.729871v7.85265c0 19.61125-2.800268 22.4096-22.394175 22.4096z" style="fill:#ffffff;opacity:.1"/>
 </g>
</svg>

<svg xmlns="http://www.w3.org/2000/svg" xmlns:xlink="http://www.w3.org/1999/xlink" width="256" height="256" version="1.1" viewBox="0 0 67.73 67.73">
 <defs>
  <linearGradient id="linearGradient1108" x1="296" x2="296" y1="-212" y2="236" gradientUnits="userSpaceOnUse" xlink:href="#linearGradient1013"/>
  <linearGradient id="linearGradient1013">
   <stop offset="0" style="stop-color:#ffffff"/>
   <stop style="stop-color:#ffffff;stop-opacity:0.09803922" offset=".125"/>
   <stop style="stop-color:#000000;stop-opacity:0.09803922" offset=".925"/>
   <stop offset="1" style="stop-color:#000000;stop-opacity:0.49803922"/>
  </linearGradient>
  <clipPath id="clipPath1082-3-361" clipPathUnits="userSpaceOnUse">
   <path d="M 361.9375,-212 C 507.2348,-212 528,-191.28677 528,-46.125 V 70.125 C 528,215.28618 507.2348,236 361.9375,236 H 214.0625 C 68.7652,236 48,215.28618 48,70.125 V -46.125 C 48,-191.28677 68.7652,-212 214.0625,-212 Z" style="fill:#8c59d9"/>
  </clipPath>
  <filter style="color-interpolation-filters:sRGB" id="filter4569" width="1.023" height="1.025" x="-.01" y="-.01">
   <feGaussianBlur stdDeviation="1.16"/>
  </filter>
  <filter style="color-interpolation-filters:sRGB" id="filter939" width="1.046" height="1.05" x="-.02" y="-.03">
   <feGaussianBlur stdDeviation="2.32"/>
  </filter>
  <filter style="color-interpolation-filters:sRGB" id="filter1002" width="1.08" height="1.12" x="-.04" y="-.06">
   <feGaussianBlur stdDeviation=".831"/>
  </filter>
 </defs>
 <g transform="translate(0,-229.26666)">
  <path style="opacity:0.2;filter:url(#filter939)" d="m 162.53675,5.5680001 c 72.64865,0 83.03125,10.3566149 83.03125,82.9375049 v 58.125005 c 0,72.58059 -10.3826,82.9375 -83.03125,82.9375 H 88.599254 C 15.9506,229.56801 5.568,219.2111 5.568,146.63051 V 88.505505 c 0,-72.58089 10.3826,-82.9375049 83.031254,-82.9375049 z" transform="matrix(0.26970779,0,0,0.26970779,-1.9098094e-8,231.46531)"/>
  <path d="m 43.837429,232.42763 c 19.593907,0 22.394176,2.79326 22.394176,22.36889 v 15.67677 c 0,19.57555 -2.800269,22.36889 -22.394176,22.36889 H 23.89591 c -19.5939088,0 -22.394177,-2.79334 -22.394177,-22.36889 v -15.67677 c 0,-19.57563 2.8002682,-22.36889 22.394177,-22.36889 z" style="opacity:0.1;fill:none;stroke:#000000;stroke-width:1.07883108;stroke-linecap:round;stroke-linejoin:round"/>
  <path d="m 162.53675,3.5680001 c 72.64865,0 83.03125,10.3566149 83.03125,82.9375049 v 58.125005 c 0,72.58059 -10.3826,82.9375 -83.03125,82.9375 H 88.599254 C 15.9506,227.56801 5.568,217.2111 5.568,144.63051 V 86.505505 c 0,-72.58089 10.3826,-82.9375049 83.031254,-82.9375049 z" transform="matrix(0.26970779,0,0,0.26970779,-1.9098094e-8,231.46531)" style="opacity:0.1;filter:url(#filter4569)"/>
  <path style="fill:#e1e3cc" d="m 43.837426,232.42763 c 19.593907,0 22.394175,2.79326 22.394175,22.36889 v 15.67677 c 0,19.57555 -2.800268,22.36889 -22.394175,22.36889 h -19.94152 c -19.5939069,0 -22.3941751,-2.79334 -22.3941751,-22.36889 v -15.67677 c 0,-19.57563 2.8002682,-22.36889 22.3941751,-22.36889 z"/>
  <path style="fill:#d52f41;fill-rule:evenodd" d="M 250.32422 115.76758 L 250.32422 96.490234 C 250.32422 87.241905 250.15865 78.98466 249.72461 71.615234 C 249.50759 67.930522 249.22364 64.468555 248.85938 61.214844 C 248.49511 57.961132 248.05101 54.916886 247.51367 52.068359 C 246.97634 49.219832 246.34561 46.566815 245.60938 44.097656 C 244.87314 41.628497 244.03126 39.34217 243.07031 37.226562 C 242.10936 35.110955 241.02985 33.166779 239.81836 31.378906 C 238.60687 29.591034 237.26325 27.960563 235.77539 26.474609 C 234.28753 24.988656 232.65529 23.647352 230.86523 22.4375 C 229.07518 21.227648 227.12784 20.149019 225.00977 19.189453 C 222.8917 18.229887 220.60277 17.389394 218.13086 16.654297 C 215.65895 15.9192 213.00392 15.288398 210.15234 14.751953 C 208.64017 14.467479 206.92138 14.273228 205.29688 14.039062 L 149.73242 115.42969 L 250.32422 115.76758 z" transform="matrix(0.26458333,0,0,0.26458333,0,229.26666)"/>
  <path style="fill:#d52f41;fill-rule:evenodd" d="M 204.51562 238.30859 C 206.42294 238.04572 208.39683 237.81072 210.15234 237.48047 C 213.00392 236.94402 215.65895 236.31323 218.13086 235.57812 C 220.60277 234.84302 222.8917 234.00254 225.00977 233.04297 C 227.12784 232.0834 229.07518 231.00478 230.86523 229.79492 C 232.65529 228.58506 234.28753 227.24377 235.77539 225.75781 C 237.26325 224.27185 238.60687 222.64139 239.81836 220.85352 C 241.02985 219.06564 242.10936 217.12147 243.07031 215.00586 C 244.03126 212.89025 244.87314 210.60392 245.60938 208.13477 C 246.34561 205.66561 246.97634 203.01259 247.51367 200.16406 C 248.05101 197.31554 248.49511 194.27128 248.85938 191.01758 C 249.22364 187.76387 249.50759 184.30189 249.72461 180.61719 C 250.15865 173.24778 250.32422 164.99048 250.32422 155.74219 L 250.32422 138.23047 L 149.86523 138.56836 L 204.51562 238.30859 z" transform="matrix(0.26458333,0,0,0.26458333,0,229.26666)"/>
  <path style="fill:#d52f41;fill-rule:evenodd" d="M 73.751953 239.88672 C 79.062431 240.0631 84.156691 240.28516 90.314453 240.28516 L 165.68555 240.28516 C 172.39881 240.28516 178.03271 240.06447 183.74219 239.85156 L 129.65625 134.62891 L 73.751953 239.88672 z" transform="matrix(0.26458333,0,0,0.26458333,0,229.26666)"/>
  <path style="fill:#d52f41;fill-rule:evenodd" d="M 5.6757812 138.47852 L 5.6757812 155.74219 C 5.6757812 164.99048 5.8413528 173.24778 6.2753906 180.61719 C 6.4924096 184.30189 6.77636 187.76387 7.140625 191.01758 C 7.50489 194.27128 7.9489928 197.31554 8.4863281 200.16406 C 9.0236635 203.01259 9.6543948 205.66561 10.390625 208.13477 C 11.126855 210.60392 11.968738 212.89025 12.929688 215.00586 C 13.890637 217.12147 14.970148 219.06564 16.181641 220.85352 C 17.393134 222.64139 18.736749 224.27185 20.224609 225.75781 C 21.71247 227.24377 23.344712 228.58506 25.134766 229.79492 C 26.924819 231.00478 28.872165 232.0834 30.990234 233.04297 C 33.108304 234.00254 35.39723 234.84302 37.869141 235.57812 C 40.341052 236.31323 42.99608 236.94402 45.847656 237.48047 C 47.62138 237.81415 49.614248 238.05148 51.542969 238.31641 L 105.26953 138.81836 L 5.6757812 138.47852 z" transform="matrix(0.26458333,0,0,0.26458333,0,229.26666)"/>
  <path style="fill:#d52f41;fill-rule:evenodd" d="M 50.539062 14.0625 C 48.973147 14.290338 47.308767 14.477086 45.847656 14.751953 C 42.99608 15.288398 40.341052 15.9192 37.869141 16.654297 C 35.39723 17.389394 33.108304 18.229887 30.990234 19.189453 C 28.872165 20.149019 26.924819 21.227648 25.134766 22.4375 C 23.344712 23.647352 21.71247 24.988656 20.224609 26.474609 C 18.736749 27.960563 17.393134 29.591034 16.181641 31.378906 C 14.970148 33.166779 13.890637 35.110955 12.929688 37.226562 C 11.968738 39.34217 11.126855 41.628497 10.390625 44.097656 C 9.6543948 46.566815 9.0236635 49.219832 8.4863281 52.068359 C 7.9489928 54.916886 7.50489 57.961132 7.140625 61.214844 C 6.77636 64.468555 6.4924096 67.930522 6.2753906 71.615234 C 5.8413528 78.98466 5.6757812 87.241905 5.6757812 96.490234 L 5.6757812 115.51562 L 105.16016 115.18164 L 50.539062 14.0625 z" transform="matrix(0.26458333,0,0,0.26458333,0,229.26666)"/>
  <path style="fill:#d52f41;fill-rule:evenodd" d="M 184.51172 12.398438 C 178.6017 12.165182 172.6849 11.947266 165.68555 11.947266 L 90.314453 11.947266 C 83.764569 11.947266 78.290711 12.169344 72.697266 12.371094 L 129.53906 119.36914 L 184.51172 12.398438 z" transform="matrix(0.26458333,0,0,0.26458333,0,229.26666)"/>
  <path style="fill:#4d4d4d;fill-rule:evenodd" d="M 5.6757812 118.16797 L 105.17383 117.83008 L 109.5918 117.81445 L 107.49023 113.92578 L 53.332031 13.654297 C 51.415818 13.891177 49.585333 14.163448 47.816406 14.462891 L 51.712891 21.679688 L 51.646484 21.679688 L 100.73828 112.55078 L 5.6757812 112.86523 L 5.6757812 118.16797 z" transform="matrix(0.26458333,0,0,0.26458333,0,229.26666)"/>
  <path style="fill:#4d4d4d;fill-rule:evenodd" d="M 54.34375 238.72656 L 107.60547 140.07617 L 109.70898 136.18555 L 105.28906 136.17188 L 5.6757812 135.83984 L 5.6757812 141.13477 L 100.85547 141.44922 L 50.404297 234.86914 L 50.419922 234.86914 L 48.78125 237.91016 C 50.590824 238.20071 52.38334 238.49862 54.34375 238.72656 z" transform="matrix(0.26458333,0,0,0.26458333,0,229.26666)"/>
  <path style="fill:#4d4d4d;fill-rule:evenodd" d="M 186.69336 239.78125 L 132.02148 133.42188 L 129.70508 128.91992 L 127.32227 133.38867 L 70.796875 239.81641 C 72.646901 239.89314 74.77371 239.90877 76.728516 239.95898 L 129.62305 140.35742 L 180.80273 239.92188 C 182.71689 239.86548 184.88184 239.8645 186.69336 239.78125 z" transform="matrix(0.26458333,0,0,0.26458333,0,229.26666)"/>
  <path style="fill:#4d4d4d;fill-rule:evenodd" d="M 250.32422 135.58398 L 149.86523 135.92188 L 145.41211 135.9375 L 147.54883 139.84375 L 201.73047 238.7168 C 203.69711 238.48709 205.50179 238.18942 207.31641 237.89648 L 154.33398 141.20117 L 250.32422 140.88672 L 250.32422 135.58398 z" transform="matrix(0.26458333,0,0,0.26458333,0,229.26666)"/>
  <path style="fill:#4d4d4d;fill-rule:evenodd" d="M 202.50781 13.630859 L 147.41602 114.15625 L 145.28125 118.0625 L 149.73242 118.07617 L 250.32422 118.41602 L 250.32422 113.11133 L 154.20117 112.79688 L 204.02344 21.876953 L 204.02344 21.777344 L 208.04492 14.443359 C 206.26542 14.144392 204.43591 13.866928 202.50781 13.630859 z" transform="matrix(0.26458333,0,0,0.26458333,0,229.26666)"/>
  <path style="fill:#4d4d4d;fill-rule:evenodd" d="M 75.541016 12.302734 C 73.650711 12.356792 71.532858 12.361502 69.742188 12.441406 L 127.20508 120.61133 L 129.58984 125.08008 L 131.90625 120.57812 L 187.46094 12.470703 C 185.66079 12.383667 183.46709 12.387899 181.56445 12.328125 L 129.50586 113.64258 L 75.828125 12.59375 L 75.695312 12.59375 L 75.541016 12.302734 z" transform="matrix(0.26458333,0,0,0.26458333,0,229.26666)"/>
  <g transform="translate(-3.5606777e-5,-0.22707869)">
   <path style="opacity:0.3;filter:url(#filter1002)" d="m 33.866692,246.22065 c -4.594799,-0.0636 -9.11423,1.7911 -12.525912,4.77176 -4.367992,3.48004 -8.546114,7.20914 -12.383875,11.2698 4.359429,5.14569 9.134459,9.98707 14.500057,14.08403 6.765961,4.71733 16.698982,4.10462 22.75516,-1.52842 4.57935,-3.77045 8.743618,-8.02313 12.564375,-12.55561 -4.573674,-4.77902 -9.550529,-9.25532 -14.876677,-13.12494 -2.970116,-1.91745 -6.50094,-2.92295 -10.033128,-2.91662 z"/>
   <path d="m 33.866692,246.22065 c -4.594799,-0.0636 -9.11423,1.7911 -12.525912,4.77176 -4.367992,3.48004 -8.546114,7.20914 -12.383875,11.2698 4.359429,5.14569 9.134459,9.98707 14.500057,14.08403 6.765961,4.71733 16.698982,4.10462 22.75516,-1.52842 4.57935,-3.77045 8.743618,-8.02313 12.564375,-12.55561 -4.573674,-4.77902 -9.550529,-9.25532 -14.876677,-13.12494 -2.970116,-1.91745 -6.50094,-2.92295 -10.033128,-2.91662 z" style="fill:#f0f3f4"/>
   <g transform="translate(-0.5926147)">
    <circle style="fill:#3ca6e0" cx="34.459" cy="262.472" r="10.504"/>
    <circle style="fill:#34495e" cx="34.459" cy="262.472" r="4.41"/>
   </g>
   <ellipse cx="309.045" cy="199.044" rx="2.164" ry=".852" transform="matrix(0.74917335,0.66237398,-0.96580229,0.25927964,0,0)" style="fill:#f8f7f7"/>
  </g>
  <path d="M 361.9375,-212 C 507.2348,-212 528,-191.28677 528,-46.125 V 70.125 C 528,215.28618 507.2348,236 361.9375,236 H 214.0625 C 68.7652,236 48,215.28618 48,70.125 V -46.125 C 48,-191.28677 68.7652,-212 214.0625,-212 Z" clip-path="url(#clipPath1082-3-361)" transform="matrix(0.1348539,0,0,0.1348539,-4.9712559,261.01666)" style="opacity:0.4;fill:none;stroke:url(#linearGradient1108);stroke-width:8;stroke-linecap:round;stroke-linejoin:round"/>
  <path style="opacity:0.1;fill:#ffffff" d="m 33.866666,232.42763 v 60.41455 h 9.970761 c 19.593907,0 22.394175,-2.79334 22.394175,-22.36889 v -15.67677 c 0,-19.57563 -2.800268,-22.36889 -22.394175,-22.36889 z"/>
  <path style="opacity:0.1;fill:#ffffff" d="m 23.895907,292.84218 c -19.5939074,0 -22.3941756,-2.79835 -22.3941756,-22.4096 v -7.85265 H 66.231602 v 7.85265 c 0,19.61125 -2.800268,22.4096 -22.394175,22.4096 z"/>
 </g>
</svg>
